packages/foundations/assets/icons/functional/images/logos/s_bahn_28.svg

<svg width="28" height="28" viewBox="0 0 28 28" fill="none" xmlns="http://www.w3.org/2000/svg">
<g clip-path="url(#clip0_185_1711)">
<path fill-rule="evenodd" clip-rule="evenodd" d="M14.0003 1.75C20.7656 1.75 26.25 7.23464 26.25 14.0003C26.25 20.7655 20.7655 26.25 14.0003 26.25C7.32566 26.25 1.89846 20.913 1.75299 14.2739L1.75 14.0003L1.75299 13.7267C1.89845 7.0871 7.32556 1.75 14.0003 1.75ZM14.0003 3.5C8.28986 3.5 3.64489 8.05728 3.50332 13.7334L3.5 14.0003L3.50332 14.2672C3.6449 19.9428 8.28995 24.5 14.0003 24.5C19.799 24.5 24.5 19.799 24.5 14.0003C24.5 8.20112 19.7991 3.5 14.0003 3.5ZM13.5177 7C15.461 7 17.202 7.65984 18.5854 8.7705V11.1034C17.3882 9.7676 15.5854 8.5933 13.4709 8.5933C12.2742 8.5933 11.59 9.25314 11.59 10.0256C11.59 11.0548 12.3741 11.529 13.4457 11.8661C14.141 12.0811 14.6301 12.1734 15.695 12.4459C17.5825 12.9505 19.4091 13.7505 19.4091 16.3322C19.4091 18.4894 17.3882 21 13.9844 21C12.0879 21 9.8959 20.1145 8.69966 19.0043V16.2039C9.83396 17.8937 11.9011 19.1967 13.9844 19.1967C15.2591 19.1967 16.2847 18.4414 16.2847 17.6362C16.2847 16.6054 15.4006 16.1404 14.2318 15.7717C13.4457 15.5349 13.1387 15.4497 12.34 15.2321C10.4497 14.6669 8.59091 13.8107 8.59091 11.2322C8.59091 8.48023 11.1862 7 13.5177 7Z" fill="#1A1C1F"/>
</g>
<defs>
<clipPath id="clip0_185_1711">
<rect width="28" height="28" fill="white"/>
</clipPath>
</defs>
</svg>

<svg xmlns="http://www.w3.org/2000/svg" width="28" height="28" fill="none"><g clip-path="url(#a)"><path fill="#1A1C1F" fill-rule="evenodd" d="M14 1.75c6.766 0 12.25 5.485 12.25 12.25S20.765 26.25 14 26.25c-6.674 0-12.102-5.337-12.247-11.976L1.75 14l.003-.273C1.898 7.087 7.326 1.75 14 1.75m0 1.75C8.29 3.5 3.645 8.057 3.503 13.733L3.5 14l.003.267C3.645 19.943 8.29 24.5 14 24.5c5.799 0 10.5-4.701 10.5-10.5S19.8 3.5 14 3.5M13.518 7c1.943 0 3.684.66 5.067 1.77v2.333c-1.197-1.335-3-2.51-5.114-2.51-1.197 0-1.881.66-1.881 1.433 0 1.029.784 1.503 1.856 1.84.695.215 1.184.307 2.249.58 1.887.505 3.714 1.305 3.714 3.886 0 2.157-2.02 4.668-5.425 4.668-1.896 0-4.088-.886-5.284-1.996v-2.8c1.134 1.69 3.201 2.993 5.284 2.993 1.275 0 2.3-.756 2.3-1.56 0-1.032-.883-1.497-2.052-1.865a59 59 0 0 0-1.892-.54c-1.89-.565-3.75-1.421-3.75-4C8.59 8.48 11.187 7 13.519 7" clip-rule="evenodd"/></g><defs><clipPath id="a"><path fill="#fff" d="M0 0h28v28H0z"/></clipPath></defs></svg>
